fl/VI.svg

<svg viewBox="0 0 21 15" version="1.1" xmlns="http://www.w3.org/2000/svg" xmlns:xlink="http://www.w3.org/1999/xlink" height="1em" width="1em">
  <defs>
    <linearGradient x1="50%" y1="0%" x2="50%" y2="100%" id="a">
      <stop stop-color="#FFFFFF" offset="0%"/>
      <stop stop-color="#F0F0F0" offset="100%"/>
    </linearGradient>
    <linearGradient x1="50%" y1="0%" x2="50%" y2="100%" id="b">
      <stop stop-color="#F8CE61" offset="0%"/>
      <stop stop-color="#F3C44B" offset="100%"/>
    </linearGradient>
    <path d="M15,6.5 C15,6.5 15.0356721,7.1645154 14.1969604,7.50000007 C13.3582488,7.83548473 12.5,7.5 12.5,7.5 C12.5,7.5 13.1176381,7.86273012 13.5,8.5 C13.8823619,9.13726988 13.6823104,9.48327481 14,9.80096442 C14.3176896,10.118654 14.891321,9.90196984 15.1184082,10.1742554 C15.3454954,10.446541 15.3276517,10.7580878 15,11 C14.6723483,11.2419122 14.5683183,11.1291023 14.1969604,10.8815304 C13.8256026,10.6339584 14,10.3866573 14,10.3866573 C14,10.3866573 13.3606567,10.0556641 12.8721924,9.91265876 C12.5,9.21820075 12,9 12,9 L12,9.5 C12,9.5 13,10.0128174 13,10.5 C13,10.7129671 12.5377888,11.4164721 12,11.9169307 C11.3075456,12.561319 10.5,12.7393795 10.5,12.7393795 L10.5,5.5 L13.5,5 C13.5,5 12.1186523,3.91320801 15.25,3.15325923 C18.3813477,2.39331045 19.0296852,2.23568932 19.0296852,2.23568932 C19.5655753,2.1055217 19.7706705,2.37691757 19.4722096,2.84142443 C19.4722096,2.84142443 19.4479739,2.94003268 19,3.5 C18.5520261,4.05996732 18.4535522,4.15983583 18,4.5 C17.5464478,4.84016417 17.5464478,4.59016417 17,5 C16.4535522,5.40983583 16.433423,5.7832885 16,6 C15.566577,6.2167115 15,6 15,6 L15,6.5 Z M5.99976347,6.5 L5.99976347,6 C5.99976347,6 5.43318648,6.2167115 4.99976347,6 C4.56634047,5.7832885 4.54621125,5.40983583 3.99976347,5 C3.4533157,4.59016417 3.4533157,4.84016417 2.99976347,4.5 C2.54621125,4.15983583 2.44773733,4.05996732 1.99976347,3.5 C1.55178962,2.94003268 1.5275539,2.84142443 1.5275539,2.84142443 C1.22909294,2.37691757 1.4341882,2.1055217 1.97007826,2.23568932 C1.97007826,2.23568932 2.61841582,2.39331045 5.74976347,3.15325923 C8.88111113,3.91320801 7.49976347,5 7.49976347,5 L10.4997635,5.5 L10.4997635,12.7393795 C10.4997635,12.7393795 9.69221791,12.561319 8.99976347,11.9169307 C8.46197466,11.4164721 7.99976347,10.7129671 7.99976347,10.5 C7.99976347,10.0128174 8.99976347,9.5 8.99976347,9.5 L8.99976347,9 C8.99976347,9 8.49976347,9.21820075 8.12757109,9.91265876 C7.63910674,10.0556641 6.99976347,10.3866573 6.99976347,10.3866573 C6.99976347,10.3866573 7.17416091,10.6339584 6.80280303,10.8815304 C6.43144515,11.1291023 6.32741522,11.2419122 5.99976347,11 C5.67211173,10.7580878 5.65426811,10.446541 5.88135527,10.1742554 C6.10844244,9.90196984 6.68207386,10.118654 6.99976347,9.80096442 C7.31745309,9.48327481 7.11740155,9.13726988 7.49976347,8.5 C7.8821254,7.86273012 8.49976347,7.5 8.49976347,7.5 C8.49976347,7.5 7.64151468,7.83548473 6.80280303,7.50000007 C5.96409137,7.1645154 5.99976347,6.5 5.99976347,6.5 Z M9.24829102,4.7263794 C9.22754629,4.58717663 8.92986933,4.47579669 9.06256189,4.4416504 C9.31018067,4.37792969 9.43445033,4.29913995 9.55615234,4.08917237 C9.60964223,3.99688843 9.36896349,4.05736223 9.4473877,3.96643067 C9.85894775,3.48923362 9.94454854,3.11858888 9.68066406,2.99414063 C9.11004639,2.72503663 9.03954561,3.42050733 9.06256189,3.13402035 C9.07898416,2.92960995 9.09965972,2.76547828 9.12567139,2.68273926 C9.24051734,2.31743235 9.82315304,2.3394117 9.85894775,2.26782227 C10.0053643,1.9749892 10.1734111,1.94738939 10.5,2 C10.8265889,2.05261061 10.9751994,2.20876058 11.1051025,2.46856689 C11.2034956,2.66535309 11.1752823,2.97129105 11.2827759,3.26324463 C11.3523501,3.45220868 11.4537615,3.55686745 11.5299072,3.74591064 C11.5742682,3.85604344 11.2412561,3.63828311 11.2827759,3.74591064 C11.3961582,4.03982034 11.6794349,4.027165 11.8487549,4.29290771 C11.9181882,4.40188128 11.5930666,4.27327708 11.6143799,4.44165039 C11.6287728,4.55535339 12,5 12,5 L9,5 C9,5 9.26625821,4.84694418 9.24829102,4.7263794 Z" id="c"/>
    <path d="M0,2.5 L0,0 C0,0 0.498466087,0.489013672 1.1628418,0.489013672 C1.82721751,0.489013672 2.5,0 2.5,0 C2.5,0 3.12659518,0.489013672 3.75109863,0.489013672 C4.37560209,0.489013672 5,0 5,0 L5,2.5 C5,5 2.5,6 2.5,6 C2.5,6 0,5 0,2.5 Z" id="d"/>
    <linearGradient x1="50%" y1="0%" x2="50%" y2="100%" id="e">
      <stop stop-color="#1E357F" offset="0%"/>
      <stop stop-color="#162966" offset="100%"/>
    </linearGradient>
    <linearGradient x1="50%" y1="0%" x2="50%" y2="100%" id="g">
      <stop stop-color="#BC1443" offset="0%"/>
      <stop stop-color="#A30B35" offset="100%"/>
    </linearGradient>
  </defs>
  <g stroke="none" stroke-width="1" fill="none" fill-rule="evenodd">
    <g>
      <rect fill="url(#a)" x="0" y="0" width="21" height="15"/>
      <path d="M16.3490785,6.50450956 L13.2783998,12.3842703 C13.2144841,12.5066567 13.2618839,12.6576844 13.3842703,12.7216002 C13.5066567,12.7855159 13.6576844,12.7381161 13.7216002,12.6157297 L16.7922789,6.73596896 C16.8561946,6.61358256 16.8087948,6.46255483 16.6864084,6.39863908 C16.564022,6.33472334 16.4129943,6.38212316 16.3490785,6.50450956 Z" fill="#1583C4" fill-rule="nonzero"/>
      <path d="M16.7809028,7.81315062 L13.3016548,12.3478186 C13.2176073,12.4573616 13.2382756,12.6142977 13.3478186,12.6983452 C13.4573616,12.7823927 13.6142977,12.7617244 13.6983452,12.6521814 L17.1775932,8.11751344 C17.2616407,8.00797041 17.2409725,7.8510343 17.1314295,7.76698683 C17.0218864,7.68293936 16.8649503,7.70360759 16.7809028,7.81315062 Z" fill="#1583C4" fill-rule="nonzero"/>
      <path d="M15.2227406,7.40893874 L13.2671742,12.4089387 C13.2168825,12.5375249 13.2803526,12.682534 13.4089387,12.7328258 C13.5375249,12.7831175 13.682534,12.7196474 13.7328258,12.5910613 L15.6883922,7.59106126 C15.7386839,7.46247513 15.6752138,7.31746596 15.5466277,7.26717421 C15.4180415,7.21688247 15.2730324,7.28035261 15.2227406,7.40893874 Z" fill="#1583C4" fill-rule="nonzero"/>
      <path d="M4.26079015,6.5726543 C4.28922017,6.66625842 4.34068798,6.82854466 4.4104506,7.03677261 C4.52672581,7.38383166 4.65173643,7.73101286 4.78092642,8.0559065 C4.92924243,8.42889925 5.07376403,8.74878496 5.21241836,9.00096471 C5.23702722,9.04572246 5.26142665,9.08829041 5.28562677,9.12862394 C5.44554426,9.39515308 5.69928793,9.74279812 6.0279581,10.1550162 C6.09002388,10.2328591 6.15440253,10.3125371 6.22087707,10.3938383 C6.46023471,10.6865829 6.7163559,10.9878817 6.97243823,11.2811702 C7.12610795,11.4571666 7.24577641,11.5915633 7.31452927,11.6676324 C7.40711007,11.770065 7.5651997,11.7780515 7.66763236,11.6854707 C7.77006502,11.5928899 7.77805153,11.4348003 7.68547073,11.3323676 C7.61852589,11.258299 7.50072339,11.1259979 7.34907331,10.9523146 C7.09628929,10.6628036 6.84354414,10.3654764 6.60795985,10.0773467 C6.54274882,9.9975908 6.47965414,9.91950192 6.41890285,9.84330767 C6.10292654,9.44701025 5.86033048,9.11463814 5.71437323,8.87137606 C5.69350579,8.83659699 5.67222182,8.79946437 5.65055898,8.76006473 C5.52346209,8.52890527 5.38685286,8.22653289 5.24554225,7.87115769 C5.12012664,7.55575603 4.99811605,7.21690657 4.88455037,6.87793494 C4.81640846,6.67454449 4.76634395,6.51668309 4.73920985,6.4273457 C4.69908399,6.29523375 4.55945766,6.22066429 4.4273457,6.26079015 C4.29523375,6.30091601 4.22066429,6.44054234 4.26079015,6.5726543 Z" fill="#409347" fill-rule="nonzero"/>
      <path d="M19,6.5 L19,9 C19,9.27614237 19.2238576,9.5 19.5,9.5 C19.7761424,9.5 20,9.27614237 20,9 L20,6.5 C20,6.22385763 19.7761424,6 19.5,6 C19.2238576,6 19,6.22385763 19,6.5 Z" fill="#1583C4" fill-rule="nonzero"/>
      <path d="M2.5,7.6537088 L1.96423835,6.31430466 C1.86168164,6.0579129 1.57069642,5.93320495 1.31430466,6.03576165 C1.0579129,6.13831836 0.933204951,6.42930358 1.03576165,6.68569534 L2.03576165,9.18569534 C2.20339081,9.60476822 2.79660919,9.60476822 2.96423835,9.18569534 L3.96423835,6.68569534 C4.06679505,6.42930358 3.9420871,6.13831836 3.68569534,6.03576165 C3.42930358,5.93320495 3.13831836,6.0579129 3.03576165,6.31430466 L2.5,7.6537088 Z" fill="#1583C4" fill-rule="nonzero"/>
      <g>
        <use fill="url(#b)" fill-rule="evenodd" xlink:href="#c"/>
        <path stroke-opacity="0.08" stroke="#000000" stroke-width="0.5" d="M14.1231635,10.1689039 L14.3695272,10.2964484 L14.2109616,10.5212994 C14.1981612,10.5550492 14.2096717,10.5895419 14.3356355,10.6735178 C14.6382525,10.8752624 14.6408273,10.876813 14.6839963,10.8836185 C14.7097583,10.8876799 14.7522458,10.8721652 14.8515075,10.7988782 C15.0526669,10.650358 15.0699098,10.5064314 14.9264162,10.3343775 C14.8949633,10.2966643 14.8209649,10.2766185 14.5983889,10.2561715 C14.5359719,10.2504688 14.5359719,10.2504688 14.4690819,10.243393 C14.3365918,10.22837 14.22327,10.2057234 14.1231635,10.1689039 Z M13.9508,10.0825234 C13.9059677,10.0528592 13.8637231,10.018241 13.8232233,9.97774112 C13.6504961,9.8050139 13.5897294,9.64940506 13.5349318,9.35144208 C13.4710906,9.00430408 13.4307901,8.87056283 13.2856268,8.62862394 C13.1969528,8.48083399 13.0886944,8.34022073 12.9650274,8.20775202 C12.7407929,7.96755804 12.5162443,7.7994651 12.3733971,7.71557294 L12.5910171,7.26715694 C12.6282811,7.28172326 12.7044372,7.30613021 12.8109049,7.33121499 C13.2212018,7.4278848 13.6561333,7.43215398 14.055263,7.286554 C14.0797057,7.27749726 14.0797057,7.27749726 14.1041128,7.26788089 C14.319732,7.18163322 14.4747303,7.06899252 14.5811916,6.93733197 C14.7118562,6.77573931 14.7531109,6.6149994 14.7502051,6.50991326 L14.7503594,6.51340105 L14.75,6.5 L14.75,5.63671328 L15.0893128,5.76649792 C15.1113168,5.77491427 15.1577251,5.78975476 15.2214735,5.80510628 C15.3857104,5.84465693 15.5536829,5.85882747 15.7024323,5.83441242 C15.771033,5.82315261 15.8331603,5.80391136 15.8881966,5.7763932 C16.0145227,5.71323013 16.0948069,5.63760697 16.2129203,5.4820933 C16.5494292,5.03902977 16.5819638,5.00102715 16.85,4.8 C17.1171278,4.59965414 17.2620717,4.53391605 17.4954934,4.47604759 L17.5088373,4.47272875 C17.6347638,4.44124713 17.7036468,4.40976492 17.85,4.3 C18.2829502,3.97528737 18.366694,3.89143719 18.8047828,3.34382624 C19.1164108,2.9542912 19.2293756,2.78199605 19.2618839,2.70628328 C19.4357942,2.43561972 19.4099349,2.40059608 19.0887439,2.47861333 C19.0076552,2.49832727 19.0076552,2.49832727 18.3730877,2.65243425 C17.6811987,2.82043539 16.6789346,3.06372718 15.3089611,3.39620693 C14.6501848,3.55608577 14.1726224,3.73607421 13.8597689,3.92832046 C13.3907129,4.21655196 13.3612152,4.43966461 13.5482746,4.68914244 C13.5905064,4.74546626 13.6324215,4.78608491 13.6545826,4.80352047 L14.0994656,5.15353751 L10.75,5.71178177 L10.75,12.3979157 C10.7643796,12.3923984 10.7791104,12.3866429 10.7941762,12.3806446 C11.0646121,12.2729731 11.3352411,12.126764 11.5868467,11.9371967 C11.6713603,11.8735216 11.752446,11.8057979 11.8296894,11.7339163 C12.2872069,11.3081569 12.75,10.6370344 12.75,10.5 C12.75,10.4926628 12.7492399,10.48468 12.7476172,10.4759403 C12.7262025,10.3606055 12.5802708,10.191488 12.3491835,10.0166915 C12.1752513,9.88512771 11.999141,9.78051564 11.8859214,9.72245464 L11.75,9.65275179 L11.75,8.61813069 L12.0999934,8.77086834 C12.2943478,8.85568488 12.5658466,9.05086083 12.8315184,9.39194277 C12.9064009,9.48808046 12.9766828,9.59184777 13.041651,9.70346947 C13.1083902,9.72521266 13.1784375,9.75004749 13.251515,9.77771925 C13.3388733,9.81079857 13.4296785,9.8476004 13.5230503,9.88749368 C13.6829237,9.95579991 13.8302554,10.0239685 13.9508,10.0825234 Z M13.9508,10.0825234 C14.013402,10.1129326 14.0687796,10.1407489 14.1149375,10.1646452 L14.1231635,10.1689039 C14.0611028,10.1460777 14.0041211,10.1178044 13.9508,10.0825234 Z M10.2497635,5.71178177 L10.4586637,5.74659848 L10.2497635,5.5 L10.2497635,5.71178177 Z M10.2497635,12.3979157 L10.2497635,12.7393795 L10.5535944,12.4952438 C10.4948465,12.4822901 10.3886966,12.4512224 10.2497635,12.3979157 Z M7.9581125,9.70346947 C7.94076579,9.73327282 7.9237979,9.76363612 7.90722241,9.79456364 L8.05732822,9.67272973 C8.02513617,9.68215444 7.99205209,9.69241219 7.9581125,9.70346947 Z M6.78880184,10.5212994 L6.79545611,10.5307354 C6.78713035,10.5179029 6.78826446,10.5199175 6.78818884,10.519729 C6.7883988,10.5202524 6.78860325,10.5207758 6.78880184,10.5212994 Z M7.04896343,10.0825234 C6.98636144,10.1129326 6.93098389,10.1407489 6.88482601,10.1646452 L6.87659997,10.1689039 C6.93866067,10.1460777 6.99564234,10.1178044 7.04896343,10.0825234 Z M9.49908469,4.75 L11.4946461,4.75 C11.4172156,4.63612348 11.3767638,4.55524282 11.366359,4.47304569 C11.3537641,4.3735467 11.3709266,4.29701844 11.4087561,4.23969543 C11.2198397,4.11965493 11.1216129,4.02274361 11.04953,3.83589053 C10.9980351,3.70240535 11.0417273,3.58854964 11.1268135,3.52354379 C11.0945727,3.46376698 11.0714449,3.41283114 11.0481723,3.3496227 C11.0337921,3.31056586 11.0211041,3.27054097 11.0098271,3.22918997 C10.9795239,3.11807233 10.9680946,3.0493403 10.9408767,2.84971666 C10.9197905,2.69506484 10.905189,2.62775679 10.8814957,2.58037029 C10.7713753,2.36012936 10.6767454,2.28169516 10.4602398,2.246818 C10.1996314,2.20483627 10.1633202,2.21809439 10.0825546,2.37962566 C10.028486,2.48776285 9.97130805,2.51274449 9.84494797,2.54483562 C9.88674295,2.53422113 9.62904805,2.5922366 9.56259484,2.61443461 C9.50244044,2.63452858 9.45709831,2.65636579 9.42462481,2.68029092 C9.53622777,2.67923494 9.65790263,2.70699994 9.78730081,2.76802428 C10.2186658,2.97145654 10.1609855,3.43157018 9.78581703,3.94299736 C9.82799588,4.02715014 9.82231426,4.12850435 9.77244553,4.21454085 C9.68156534,4.37133279 9.58282945,4.47828812 9.451196,4.55646677 C9.47325901,4.5959952 9.48804136,4.63907552 9.49556035,4.68953004 C9.49861468,4.71002541 9.49972983,4.7301916 9.49908469,4.75 Z"/>
      </g>
      <g transform="translate(8.000000, 4.000000)">
        <mask id="f" fill="white">
          <use xlink:href="#d"/>
        </mask>
        <use fill="url(#a)" xlink:href="#d"/>
        <rect fill="url(#e)" mask="url(#f)" x="0" y="0" width="5" height="2"/>
        <path d="M0,2 L1,2 L1,6 L0,6 L0,2 Z M2,2 L3,2 L3,6 L2,6 L2,2 Z M4,2 L5,2 L5,6 L4,6 L4,2 Z" fill="url(#g)" mask="url(#f)"/>
      </g>
    </g>
  </g>
</svg>

<svg viewBox="0 0 21 15" xmlns="http://www.w3.org/2000/svg" xmlns:xlink="http://www.w3.org/1999/xlink" height="1em" width="1em">
  <defs>
    <linearGradient x1="50%" y1="0%" x2="50%" y2="100%" id="a">
      <stop stop-color="#FFF" offset="0%"/>
      <stop stop-color="#F0F0F0" offset="100%"/>
    </linearGradient>
    <linearGradient x1="50%" y1="0%" x2="50%" y2="100%" id="b">
      <stop stop-color="#F8CE61" offset="0%"/>
      <stop stop-color="#F3C44B" offset="100%"/>
    </linearGradient>
    <linearGradient x1="50%" y1="0%" x2="50%" y2="100%" id="e">
      <stop stop-color="#1E357F" offset="0%"/>
      <stop stop-color="#162966" offset="100%"/>
    </linearGradient>
    <linearGradient x1="50%" y1="0%" x2="50%" y2="100%" id="g">
      <stop stop-color="#BC1443" offset="0%"/>
      <stop stop-color="#A30B35" offset="100%"/>
    </linearGradient>
    <path d="M15 6.5s.036.665-.803 1c-.839.335-1.697 0-1.697 0s.618.363 1 1 .182.983.5 1.301c.318.318.891.101 1.118.373.227.273.21.584-.118.826-.328.242-.432.13-.803-.118-.371-.248-.197-.495-.197-.495s-.64-.331-1.128-.474C12.5 9.218 12 9 12 9v.5s1 .513 1 1c0 .213-.462.916-1 1.417-.692.644-1.5.822-1.5.822V5.5l3-.5s-1.381-1.087 1.75-1.847l3.78-.917c.536-.13.74.14.442.605 0 0-.024.099-.472.659-.448.56-.546.66-1 1-.454.34-.454.09-1 .5-.546.41-.567.783-1 1-.433.217-1 0-1 0v.5Zm-9 0V6s-.567.217-1 0c-.434-.217-.454-.59-1-1-.547-.41-.547-.16-1-.5-.454-.34-.552-.44-1-1-.448-.56-.472-.659-.472-.659-.299-.464-.094-.735.442-.605l3.78.917C8.88 3.913 7.5 5 7.5 5l3 .5v7.24s-.808-.179-1.5-.823c-.538-.5-1-1.204-1-1.417 0-.487 1-1 1-1V9s-.5.218-.872.913c-.489.143-1.128.474-1.128.474s.174.247-.197.495c-.372.247-.476.36-.803.118-.328-.242-.346-.553-.119-.826.227-.272.801-.055 1.119-.373.317-.318.117-.664.5-1.301.382-.637 1-1 1-1s-.858.335-1.697 0C5.964 7.165 6 6.5 6 6.5Zm3.248-1.774c-.02-.139-.318-.25-.185-.284.247-.064.371-.143.493-.353.054-.092-.187-.032-.109-.123.412-.477.498-.847.234-.972-.571-.269-.641.427-.618.14.016-.204.037-.369.063-.451.115-.366.697-.344.733-.415.146-.293.314-.32.641-.268.327.053.475.209.605.469.098.196.07.502.178.794.07.19.17.294.247.483.044.11-.289-.108-.247 0 .113.294.396.281.566.547.07.109-.256-.02-.235.149C11.63 4.555 12 5 12 5H9s.266-.153.248-.274Z" id="c"/>
    <path d="M0 2.5V0s.498.489 1.163.489C1.827.489 2.5 0 2.5 0s.627.489 1.251.489C4.376.489 5 0 5 0v2.5C5 5 2.5 6 2.5 6S0 5 0 2.5Z" id="d"/>
  </defs>
  <g fill="none" fill-rule="evenodd">
    <path fill="url(#a)" d="M0 0h21v15H0z"/>
    <path d="m16.35 6.505-3.072 5.88a.25.25 0 0 0 .444.23l3.07-5.879a.25.25 0 0 0-.443-.231Z" fill="#1583C4" fill-rule="nonzero"/>
    <path d="m16.78 7.813-3.478 4.535a.25.25 0 0 0 .396.304l3.48-4.534a.25.25 0 1 0-.397-.305Z" fill="#1583C4" fill-rule="nonzero"/>
    <path d="m15.223 7.409-1.956 5a.25.25 0 0 0 .466.182l1.955-5a.25.25 0 0 0-.465-.182Z" fill="#1583C4" fill-rule="nonzero"/>
    <path d="M4.26 6.573c.03.093.08.256.15.464.117.347.242.694.37 1.019.15.373.294.693.432.945l.074.128c.16.266.413.614.742 1.026a36.319 36.319 0 0 0 1.287 1.513.25.25 0 0 0 .37-.336 35.831 35.831 0 0 1-1.267-1.49 9.854 9.854 0 0 1-.704-.97 3.41 3.41 0 0 1-.063-.112 8.185 8.185 0 0 1-.405-.889 19.401 19.401 0 0 1-.507-1.444.25.25 0 1 0-.478.146Z" fill="#409347" fill-rule="nonzero"/>
    <path d="M19 6.5V9a.5.5 0 1 0 1 0V6.5a.5.5 0 1 0-1 0ZM2.5 7.654l-.536-1.34a.5.5 0 0 0-.928.372l1 2.5a.5.5 0 0 0 .928 0l1-2.5a.5.5 0 0 0-.928-.372L2.5 7.654Z" fill="#1583C4" fill-rule="nonzero"/>
    <use fill="url(#b)" xlink:href="#c"/>
    <path stroke-opacity=".08" stroke="#000" stroke-width=".5" d="m14.123 10.169.247.127-.159.225c-.013.034-.001.069.125.153.302.201.305.203.348.21.026.004.068-.012.168-.085.2-.149.218-.293.074-.465-.031-.037-.105-.057-.328-.078l-.129-.013a1.484 1.484 0 0 1-.346-.074Zm-.172-.086a.819.819 0 0 1-.128-.105c-.173-.173-.233-.329-.288-.627-.064-.347-.104-.48-.25-.722a2.52 2.52 0 0 0-.32-.421 2.84 2.84 0 0 0-.592-.492l.218-.449c.037.015.113.04.22.064.41.097.845.101 1.244-.044l.05-.02a1.14 1.14 0 0 0 .476-.33.683.683 0 0 0 .17-.427v.003L14.75 6.5v-.863l.34.13c.021.008.068.023.131.038.165.04.333.054.481.03a.648.648 0 0 0 .186-.059c.127-.063.207-.138.325-.294.336-.443.369-.481.637-.682.267-.2.412-.266.645-.324l.014-.003a.807.807 0 0 0 .341-.173c.433-.325.517-.409.955-.956.311-.39.424-.562.457-.638.174-.27.148-.305-.173-.227l-.716.173-3.064.744c-.659.16-1.136.34-1.45.532-.468.289-.498.512-.31.761a.664.664 0 0 0 .106.115l.444.35-3.349.558v6.686l.044-.017a3.423 3.423 0 0 0 1.036-.647c.457-.426.92-1.097.92-1.234 0-.007 0-.015-.002-.024-.022-.115-.168-.285-.399-.46a3.357 3.357 0 0 0-.463-.294l-.136-.07V8.619l.35.153c.194.085.466.28.732.62.074.097.145.2.21.312a7.035 7.035 0 0 1 .481.184c.16.069.307.137.428.196Zm0 0 .164.082.008.004a.826.826 0 0 1-.172-.086ZM10.25 5.712l.209.035-.21-.247v.212Zm0 6.686v.341l.304-.244a2.326 2.326 0 0 1-.304-.097ZM7.958 9.703c-.017.03-.034.06-.05.092l.15-.122a3.45 3.45 0 0 0-.1.03Zm-1.17.818.007.01-.007-.011v.001Zm.261-.438c-.063.03-.118.058-.164.082l-.008.004a.826.826 0 0 0 .172-.086Zm2.45-5.333h1.996a.655.655 0 0 1-.129-.277.336.336 0 0 1 .043-.233c-.19-.12-.287-.217-.36-.404-.051-.134-.007-.247.078-.312a1.269 1.269 0 0 1-.117-.295 2.559 2.559 0 0 1-.07-.38c-.02-.154-.035-.221-.059-.269-.11-.22-.204-.298-.42-.333-.261-.042-.298-.029-.378.133-.055.108-.112.133-.238.165.042-.01-.216.047-.282.07a.503.503 0 0 0-.138.065.834.834 0 0 1 .362.088c.432.203.374.664-.001 1.175a.285.285 0 0 1-.014.272.892.892 0 0 1-.32.341.383.383 0 0 1 .047.194Z"/>
    <g transform="translate(8 4)">
      <mask id="f" fill="#fff">
        <use xlink:href="#d"/>
      </mask>
      <use fill="url(#a)" xlink:href="#d"/>
      <path fill="url(#e)" mask="url(#f)" d="M0 0h5v2H0z"/>
      <path d="M0 2h1v4H0V2Zm2 0h1v4H2V2Zm2 0h1v4H4V2Z" fill="url(#g)" mask="url(#f)"/>
    </g>
  </g>
</svg>
